X:85
T:West’s Hornpipe. RH.085
R:.Hornpipe
S:Rev.R.Harrison’s MS,c1815,Cumbria
O:England
A:Temple Sowerby,Cumbria
Z:vmp.Simon Wilson. Review PJH, 2008.
M:C
L:1/8
Q:2/4=90
K:D
|:d2(FG) AFAF|d2FG AFAF|BAGF E2(ef)|gfedc2(A/B/c)|!
d2FG AFAF|d2FG AFAF|BAGF E2(eg)|fedc d4:|!
|:f2(df) dfdf|e2(ce) cece|f2(df) dfdf|edcBA2(Bc)|!
dBdB cAcA|dBdB cAcA|afge fdec|d2d2 d4:|

